X: 18139
T: Humours Of Castlelyons, The
R: jig
M: 6/8
K: Eminor
GAG BAG|dBG BAG|A2B c2d|ecA AGE|
~G3 BAG|dBG BAG|A2B cBA|1 BGE EDE:|2 BGE E2f||
gag gdB|gag gdB|A2B c2d|ecA ABd|
~g3 gdB|gag gdB|A2B cBA|BGE E2f|
gag gdB|gag gdB|A2B c2d|ecA ABd|
~g3 aga|bge dBG|A2B cBA|BGE EDE||

